X:180
T:Princess Royal
S:Abingdon
M:2/4
L:1/8
K:G
dc|:B2A2G2 dc|B2A2 G2d2|e3 d c2e2|d3c B2d2|
  |c2B2A2G2|FGAF D2dc|BABG A2F2|1 G6 dc:|2G6 d2|
  |:e3/2e/2 edef g2|g2f2e2d2|B3/2A/2 G2A4|G2G2 A4 |
  |B2 G2 g4| g2d2 e4|d2B2c4|c2B2 A2G2|
  |FGAF D4|d2c2 BABG| A2 F2|1 G6 d2:|2G6 dc|
